icons/footer-instagram.svg

<svg width="24" height="24" viewBox="0 0 24 24" fill="none" xmlns="http://www.w3.org/2000/svg">
<g clip-path="url(#clip0_329742_404)">
<path d="M23.9765 7.05607C23.9203 5.78085 23.7141 4.90416 23.4187 4.14449C23.1139 3.33812 22.6451 2.61617 22.0308 2.01602C21.4307 1.40652 20.704 0.932921 19.9069 0.632936C19.1429 0.337529 18.2708 0.131312 16.9955 0.0750879C15.7108 0.0141019 15.303 0 12.0445 0C8.78606 0 8.37821 0.0141019 7.09823 0.0703262C5.82302 0.126551 4.94633 0.332951 4.18684 0.628174C3.38029 0.932922 2.65835 1.40176 2.05819 2.01602C1.4487 2.61617 0.975279 3.34288 0.675111 4.13991C0.379704 4.90416 0.173487 5.77609 0.117263 7.0513C0.0562771 8.33604 0.0421753 8.7439 0.0421753 12.0023C0.0421753 15.2608 0.0562771 15.6686 0.112501 16.9486C0.168726 18.2238 0.375126 19.1005 0.670532 19.8602C0.975279 20.6666 1.4487 21.3885 2.05819 21.9887C2.65835 22.5982 3.38505 23.0718 4.18208 23.3718C4.94633 23.6672 5.81826 23.8734 7.09366 23.9296C8.37345 23.986 8.78148 23.9999 12.0399 23.9999C15.2984 23.9999 15.7062 23.986 16.9862 23.9296C18.2614 23.8734 19.1381 23.6672 19.8976 23.3718C21.5105 22.7482 22.7857 21.4729 23.4093 19.8602C23.7046 19.096 23.911 18.2238 23.9672 16.9486C24.0234 15.6686 24.0375 15.2608 24.0375 12.0023C24.0375 8.7439 24.0327 8.33604 23.9765 7.05607ZM21.8153 16.8549C21.7636 18.027 21.5667 18.6599 21.4027 19.0819C20.9994 20.1274 20.1696 20.9572 19.124 21.3605C18.7021 21.5246 18.0645 21.7215 16.897 21.7729C15.6311 21.8293 15.2515 21.8433 12.0493 21.8433C8.84705 21.8433 8.46264 21.8293 7.20134 21.7729C6.02924 21.7215 5.3963 21.5246 4.97435 21.3605C4.45404 21.1682 3.98044 20.8634 3.59603 20.4649C3.19751 20.0758 2.89277 19.6069 2.70047 19.0866C2.53637 18.6647 2.3395 18.027 2.28803 16.8596C2.23163 15.5937 2.21771 15.2139 2.21771 12.0117C2.21771 8.80946 2.23163 8.42505 2.28803 7.16394C2.3395 5.99183 2.53637 5.3589 2.70047 4.93694C2.89277 4.41645 3.19751 3.94303 3.60079 3.55843C3.98978 3.15992 4.45862 2.85517 4.97911 2.66306C5.40107 2.49896 6.03876 2.30209 7.2061 2.25044C8.47198 2.19422 8.85181 2.18011 12.0538 2.18011C15.2608 2.18011 15.6405 2.19422 16.9018 2.25044C18.0739 2.30209 18.7068 2.49896 19.1288 2.66306C19.6491 2.85517 20.1227 3.15992 20.5071 3.55843C20.9056 3.94761 21.2104 4.41645 21.4027 4.93694C21.5667 5.3589 21.7636 5.99641 21.8153 7.16394C21.8715 8.42981 21.8856 8.80946 21.8856 12.0117C21.8856 15.2139 21.8715 15.589 21.8153 16.8549Z" fill="#F4F4FD"/>
<path d="M12.0445 5.83704C8.64086 5.83704 5.87927 8.59844 5.87927 12.0023C5.87927 15.4062 8.64086 18.1676 12.0445 18.1676C15.4484 18.1676 18.2098 15.4062 18.2098 12.0023C18.2098 8.59844 15.4484 5.83704 12.0445 5.83704ZM12.0445 16.0016C9.8364 16.0016 8.04528 14.2106 8.04528 12.0023C8.04528 9.79398 9.8364 8.00305 12.0445 8.00305C14.2529 8.00305 16.0438 9.79398 16.0438 12.0023C16.0438 14.2106 14.2529 16.0016 12.0445 16.0016Z" fill="#F4F4FD"/>
<path d="M19.893 5.59336C19.893 6.3882 19.2486 7.03267 18.4535 7.03267C17.6587 7.03267 17.0142 6.3882 17.0142 5.59336C17.0142 4.79835 17.6587 4.15405 18.4535 4.15405C19.2486 4.15405 19.893 4.79835 19.893 5.59336Z" fill="#F4F4FD"/>
</g>
<defs>
<clipPath id="clip0_329742_404">
<rect width="24" height="24" fill="white"/>
</clipPath>
</defs>
</svg>

<svg xmlns="http://www.w3.org/2000/svg" width="24" height="24" fill="none"><g fill="#F4F4FD" clip-path="url(#a)"><path d="M23.977 7.056c-.057-1.275-.263-2.152-.558-2.912a5.857 5.857 0 0 0-1.388-2.128A5.905 5.905 0 0 0 19.907.633C19.143.338 18.27.13 16.995.075 15.711.015 15.303 0 12.046 0 8.785 0 8.377.014 7.097.07 5.823.127 4.946.333 4.187.628a5.856 5.856 0 0 0-2.129 1.388A5.909 5.909 0 0 0 .675 4.14C.38 4.904.173 5.776.117 7.05.057 8.336.042 8.744.042 12.002c0 3.259.014 3.667.07 4.947.057 1.275.263 2.151.559 2.911a5.919 5.919 0 0 0 1.387 2.129c.6.61 1.327 1.083 2.124 1.383.764.295 1.636.501 2.912.558 1.28.056 1.687.07 4.946.07 3.258 0 3.666-.014 4.946-.07 1.275-.057 2.152-.263 2.912-.558a6.139 6.139 0 0 0 3.511-3.512c.296-.764.502-1.636.558-2.911.056-1.28.07-1.688.07-4.947 0-3.258-.004-3.666-.06-4.946Zm-2.162 9.799c-.051 1.172-.248 1.805-.412 2.227a3.981 3.981 0 0 1-2.279 2.278c-.422.165-1.06.361-2.227.413-1.266.056-1.645.07-4.848.07-3.202 0-3.586-.014-4.848-.07-1.172-.052-1.805-.248-2.227-.413a3.693 3.693 0 0 1-1.378-.895 3.73 3.73 0 0 1-.896-1.378c-.164-.422-.36-1.06-.412-2.227-.056-1.266-.07-1.646-.07-4.848 0-3.203.014-3.587.07-4.848.052-1.172.248-1.805.412-2.227.193-.52.498-.994.9-1.379a3.726 3.726 0 0 1 1.38-.895c.421-.164 1.059-.36 2.226-.413 1.266-.056 1.646-.07 4.848-.07 3.207 0 3.586.014 4.848.07 1.172.052 1.805.249 2.227.413.52.192.994.497 1.378.895.399.39.703.858.896 1.379.164.422.36 1.06.412 2.227.056 1.266.07 1.645.07 4.848 0 3.202-.014 3.577-.07 4.843Z"/><path d="M12.044 5.837a6.167 6.167 0 0 0-6.165 6.165 6.167 6.167 0 0 0 6.165 6.166 6.167 6.167 0 0 0 6.166-6.166 6.167 6.167 0 0 0-6.166-6.165Zm0 10.165a4 4 0 1 1 .002-8 4 4 0 0 1-.002 8ZM19.893 5.593a1.44 1.44 0 1 1-2.879 0 1.44 1.44 0 0 1 2.879 0Z"/></g><defs><clipPath id="a"><path fill="#fff" d="M0 0h24v24H0z"/></clipPath></defs></svg>
